src/components/Icon/assets/headset-off.svg

<svg width="24" height="24" viewBox="0 0 24 24" fill="none" xmlns="http://www.w3.org/2000/svg">
<path fill-rule="evenodd" clip-rule="evenodd" d="M17.296 10.2531C17.296 6.94411 14.605 4.25311 11.296 4.25311C9.67203 4.25311 8.20903 4.91311 7.12903 5.96511L14.296 13.1321V11.7531C14.296 10.9261 14.969 10.2531 15.796 10.2531H17.296ZM19.296 17.2531C19.296 17.4981 19.198 17.7141 19.052 17.8881L21.549 20.3841L20.134 21.7991L1.75 3.41412L3.164 2.00012L5.709 4.54412C7.15 3.12912 9.121 2.25312 11.296 2.25312C15.707 2.25312 19.296 5.84212 19.296 10.2531V11.2531V14.2531V17.2531ZM5.29602 18.2531V19.2531C5.29602 19.8041 5.74502 20.2531 6.29602 20.2531H11.296V22.2531H6.29602C4.64202 22.2531 3.29602 20.9071 3.29602 19.2531V18.2531V10.2531C3.29602 9.11313 3.53902 8.03113 3.97102 7.04913L5.53102 8.60913C5.38102 9.13213 5.29602 9.68213 5.29602 10.2531H6.79602C7.62302 10.2531 8.29602 10.9261 8.29602 11.7531V16.7531C8.29602 17.5801 7.62302 18.2531 6.79602 18.2531H5.29602Z" fill="#65676A"/>
</svg>

<svg xmlns="http://www.w3.org/2000/svg" width="24" height="24" viewBox="0 0 24 24">
    <path fill="#65676A" fill-rule="evenodd" d="M3.971 7.05l1.56 1.56c-.15.522-.235 1.072-.235 1.643h1.5c.827 0 1.5.673 1.5 1.5v5c0 .827-.673 1.5-1.5 1.5h-1.5v1c0 .551.449 1 1 1h5v2h-5c-1.654 0-3-1.346-3-3v-9c0-1.14.243-2.222.675-3.204zM3.164 2l2.545 2.544c1.441-1.415 3.412-2.29 5.587-2.29 4.411 0 8 3.588 8 8v7c0 .244-.098.46-.244.634l2.497 2.496-1.415 1.415L1.75 3.414 3.164 2zm8.132 2.253c-1.624 0-3.087.66-4.167 1.712l7.167 7.167v-1.379c0-.827.673-1.5 1.5-1.5h1.5c0-3.309-2.691-6-6-6z"/>
</svg>
